X:202
T:Fisztorsa
C:David Grisman
N:Transcribed by Mike Stangeland From the album "Mando Mafia" by the group Mando mafia
L:1/8
Q:1/4=240
M:4/4
K:F
"Dm"z8 | z6 Ac |: df "Dm"ec df ec | d2 d4 ba | _a=a _af ef ed | "A7"_d=d e2 e2 Ac | 
_dg ec dg ec | _dg e2 ee ag | fg ef _dB AG |1 A"Dm"F D2 D2 Ac :|2 A"Dm"F D2 D2 DF | 
|: "Gm"GB AB _dB AF | GB AB _dB AF | "Dm"DC DF DC DF | D2 D4 DF | "Gm"GB AB _dB AF | 
GB AB _dB AB | cB AB "Bb"dB AB |1 {_e}(3=ee"A7"e (3eee e2 DF :|2 {_e}(3=ee"A7"e (3eee e2 Ac | 
AF "Dm"D2 D4 | 
 

